X:183
T:Drumins
R:Strathspey
C:William Marshall
B:The Athole Collection
M:C
L:1/8
K:D
F|D/E/F/G/ A>F D/D/D B2|A<d A>F G<E E>F|D/E/F/G/ A>F D/D/D B2|
A<d A>G F<DD:|
g|f>ed>e d/d/d f2|d>ef>d e<E E>g|f>ed>e d/d/d f2|B<d A>G F<D D>g|
f>e d<e d/d/d f2|d>ef>d e<E E>g|f<b e>f d>ef>e|B<d A>G F<DD/||

